X:2
T:Bank of Turf
Z: id:dc-slide-2
M:6/8
L:1/8
K:D Major
A3 DFA|BAF D3|dcd ede|f3 def|!
g3 gab|afd Bcd|[1 e2d e2d|cBA Bcd:|[2 ABc dfe|d3 d3|]!
e3 efg|f3 fga|g3 f3|edB ABd|!
e3 efg|f3 fga|gfe dcB|A3 A3:|!

